X:1
T:Come, Soul, and Find Thy Rest
T:A. J. Stuart
T:Come, Soul, and Find Thy Rest
T:Public Domain
T:Public Domain
C:A. J. Stuart
Z:Public Domain
%%score ( 1 2 ) ( 3 4 )
L:1/8
M:3/4
K:Bb
V:1 treble 
V:2 treble 
V:3 bass 
V:4 bass 
V:1
 F2 | [DB]3 [Dc] [DB]>[EA] | [EA]4 F2 | [Fc]3 [Fd] [Fc]>[DB] | [DB]4 F2 | [Fd]3 [_Af] [Af]>[Ge] | %6
w: 1.~Come,|and find thy rest,|No long-|be dis- tressed; Come|to thy|Sav- ior’s breast; O|
w: 2.~Dark|the world, and cold,|Her cares|not be told; Come|to thy|Sav- ior’s fold; O|
w: 3.~Come|thy load of sin,|Christ died|soul to win; Now|He will|take thee in; O|
w: 4.~Time,|will soon be past,|Mo- ments|fly- ing fast; Judg-|ment will|come at last; O|
w: 5.~Come,|we pray thee, come,|Come, and|long- er roam; Come|now, and|start for home, O|
 [Ge]4 [EG]2 | [DF]2 [Fd]3 [Ec] | [DB]4 ||"^Refrain" F2 | [DB]3 [Dc] [DB]>[EA] | [EA]4 F2 | %12
w: don’t stay|a- way. *|||||
w: don’t stay|a- way. *|||||
w: don’t stay|a- way. Prayers|are|a-|ing now, An- gels|are bend-|
w: don’t stay|a- way. *|||||
w: don’t stay|a- way. *|||||
 [Fc]3 [Fd] [Ec]>[DB] | [DB]4 (D_A) | [GB]2 [FA]2 [EG]2 | [EG]>[DF] [DF]4 |] %16
w: ||||
w: ||||
w: now, Both worlds are|blend- ing *|Don’t stay a-|way. * *|
w: ||||
w: ||||
V:2
 F2 | x6 | x4 F2 | x6 | x6 | x6 | x6 | x6 | x4 || F2 | x6 | x4 F2 | x6 | x4 B2 | x6 | x6 |] %16
w: soul,||er||||||||||||||
w: is||can-||||||||||||||
w: with||thy|||||||scend-||ing||now,|||
w: here,||are||||||||||||||
w: O||no||||||||||||||
V:3
 F,2 | [B,,F,]3 [B,,F,] [B,,F,]>[C,F,] | [C,F,]4 [F,A,]2 | [F,A,]3 [F,B,] [F,A,]>[B,,F,] | %4
 [B,,F,]4 F,2 | [B,,B,]3 [D,B,] [D,B,]>[D,B,] | [E,B,]4 [E,B,]2 | [F,B,]2 [F,B,]3 F, | [B,,F,]4 || %9
 F,2 | [B,,F,]3 [B,,F,] [B,,F,]>[C,F,] | [C,F,]4 [F,A,]2 | [F,A,]3 [F,B,] [F,A,]>[B,,F,] | %13
 [B,,F,]4 [B,,A,]2 | [E,B,]4 [E,B,]2 | [B,,B,]>[B,,B,] [B,,B,]4 |] %16
V:4
 F,2 | x6 | x6 | x6 | x6 | x6 | x6 | x5 F, | x4 || F,2 | x6 | x6 | x6 | x6 | x6 | x6 |] %16

